24x24/places/folder-paleorange-books.svg

<svg xmlns="http://www.w3.org/2000/svg" width="24" height="24" version="1"><rect style="opacity:.2" width="20" height="12" x="2" y="9.5" rx="1" ry="1"/><path style="fill:#c89e6b" d="M2 17c0 .554.446 1 1 1h18c.554 0 1-.446 1-1V6c0-.554-.446-1-1-1h-9c-1.5 0-2-2-3.5-2H3c-.554 0-1 .446-1 1"/><rect style="opacity:.2" width="20" height="12" x="2" y="8.5" rx="1" ry="1"/><rect style="fill:#f4f4f7" width="16" height="8" x="4" y="7" rx="1" ry="1"/><rect style="fill:#eeca8f" width="20" height="12" x="2" y="9" rx="1" ry="1"/><path style="opacity:.1;fill:#f4f4f7" d="M3 3c-.554 0-1 .446-1 1v.5c0-.554.446-1 1-1h5.5c1.5 0 2 2 3.5 2h9c.554 0 1 .446 1 1V6c0-.554-.446-1-1-1h-9c-1.5 0-2-2-3.5-2z"/><path style="fill:#917359" d="M7 10c-2 0-2 1-2 1v4s0-1 2-1 3 2 3 2v-4s-1-2-3-2zm7 0c-2 0-3 2-3 2v4s1-2 3-2 2 1 2 1v-4s0-1-2-1zm-7 5c-2 0-2 1-2 1v1s0-1 2-1 3 2 3 2v-1s-1-2-3-2zm7 0c-2 0-3.005 1.993-3 2v1s1-2 3-2 2 1 2 1v-1s0-1-2-1z" transform="translate(1 1)"/></svg>

<svg xmlns="http://www.w3.org/2000/svg" width="24" height="24" version="1">
 <rect style="opacity:0.2" width="20" height="12" x="2" y="9.5" rx="1" ry="1"/>
 <path style="fill:#c89e6b" d="M 2,17 C 2,17.554 2.446,18 3,18 H 21 C 21.554,18 22,17.554 22,17 V 6 C 22,5.446 21.554,5 21,5 H 12 C 10.5,5 10,3 8.5,3 H 3 C 2.446,3 2,3.446 2,4"/>
 <rect style="opacity:0.2" width="20" height="12" x="2" y="8.5" rx="1" ry="1"/>
 <rect style="fill:#f4f4f7" width="16" height="8" x="4" y="7" rx="1" ry="1"/>
 <rect style="fill:#eeca8f" width="20" height="12" x="2" y="9" rx="1" ry="1"/>
 <path style="opacity:0.1;fill:#f4f4f7" d="M 3,3 C 2.446,3 2,3.446 2,4 V 4.5 C 2,3.946 2.446,3.5 3,3.5 H 8.5 C 10,3.5 10.5,5.5 12,5.5 H 21 C 21.554,5.5 22,5.946 22,6.5 V 6 C 22,5.446 21.554,5 21,5 H 12 C 10.5,5 10,3 8.5,3 Z"/>
 <g transform="translate(1,1)">
  <path style="fill:#917359" d="m7 10c-2 0-2 1-2 1v4s0-1 2-1 3 2 3 2v-4s-1-2-3-2zm7 0c-2 0-3 2-3 2v4s1-2 3-2 2 1 2 1v-4s0-1-2-1zm-7 5c-2 0-2 1-2 1v1s0-1 2-1 3 2 3 2v-1s-1-2-3-2zm7 0c-2 0-3.005064 1.992688-3 2v1s1-2 3-2 2 1 2 1v-1s0-1-2-1z"/>
 </g>
</svg>
